Adwaita++/apps/scalable/dvdstyler.svg

<svg enable-background="new" height="128" viewBox="0 0 128 128" width="128" xmlns="http://www.w3.org/2000/svg" xmlns:xlink="http://www.w3.org/1999/xlink">
  <radialGradient id="radialGradient1425" cx="80.25944096348" cy="56.78531452645" gradientUnits="userSpaceOnUse" r="32.3954204">
    <stop offset="0" stop-color="#505050"/>
    <stop offset="1"/>
  </radialGradient>
  <linearGradient id="linearGradient1506" gradientUnits="userSpaceOnUse" x1="71.22899069328" x2="76.18771926664" y1="66.01873612" y2="61.06000754664">
    <stop offset="0" stop-color="#bcbcb4"/>
    <stop offset="1" stop-color="#eeeeec"/>
  </linearGradient>
  <linearGradient id="linearGradient1492" gradientUnits="userSpaceOnUse" x1="38.979297034" x2="34.51885157192" y1="22.66170260736" y2="27.12214806944">
    <stop offset="0" stop-color="#e9b96e"/>
    <stop offset="1" stop-color="#dc9321"/>
  </linearGradient>
  <linearGradient id="linearGradient2186" gradientUnits="userSpaceOnUse" x1="25.455" x2="70.054" y1="31.144" y2="68.509">
    <stop offset="0" stop-color="#ce8cff"/>
    <stop offset=".67" stop-color="#eee5fd"/>
    <stop offset="1" stop-color="#fefeff"/>
  </linearGradient>
  <linearGradient id="linearGradient2192" gradientTransform="matrix(-1 0 0 -1 130 126)" gradientUnits="userSpaceOnUse" x1="25.455" x2="70.054" y1="31.144" y2="68.509">
    <stop offset="0" stop-color="#ce8cff"/>
    <stop offset=".67" stop-color="#eee5fd"/>
    <stop offset="1" stop-color="#fefeff" stop-opacity=".22381"/>
  </linearGradient>
  <path d="m65.000004 13c-28.807999 0-52.000004 23.192-52.000004 52 0 28.808001 23.192005 52 52.000004 52s51.999996-23.191999 51.999996-52c0-28.808-23.191997-52-51.999996-52zm0 29.714286a22.285716 22.285714 0 0 1 22.285713 22.285714 22.285716 22.285714 0 0 1 -22.285713 22.285715 22.285716 22.285714 0 0 1 -22.285715-22.285715 22.285716 22.285714 0 0 1 22.285715-22.285714z" opacity=".2"/>
  <path d="m65.000004 35.142858a27.857144 27.857142 0 0 0 -27.857146 27.857142 27.857144 27.857142 0 0 0 27.857146 27.857144 27.857144 27.857142 0 0 0 27.857142-27.857144 27.857144 27.857142 0 0 0 -27.857142-27.857142zm0 16.714285c6.154201 0 11.142854 4.988658 11.142854 11.142857 0 6.1542-4.988653 11.142858-11.142854 11.142858s-11.142859-4.988658-11.142859-11.142858c0-6.154199 4.988658-11.142857 11.142859-11.142857z" fill="#939393"/>
  <path d="m65.000004 11c-28.807999 0-52.000004 23.192-52.000004 52 0 28.808001 23.192005 52 52.000004 52s51.999996-23.191999 51.999996-52c0-28.808-23.191997-52-51.999996-52zm0 29.714286a22.285716 22.285714 0 0 1 22.285713 22.285714 22.285716 22.285714 0 0 1 -22.285713 22.285715 22.285716 22.285714 0 0 1 -22.285715-22.285715 22.285716 22.285714 0 0 1 22.285715-22.285714z" fill="url(#linearGradient2186)"/>
  <path d="m64.999996 115c28.807999 0 52.000004-23.192 52.000004-52 0-28.808001-23.192005-52-52.000004-52s-51.999996 23.191999-51.999996 52c0 28.808 23.191997 52 51.999996 52zm0-29.714286a22.285716 22.285714 0 0 1 -22.285713-22.285714 22.285716 22.285714 0 0 1 22.285713-22.285715 22.285716 22.285714 0 0 1 22.285715 22.285715 22.285716 22.285714 0 0 1 -22.285715 22.285714z" fill="url(#linearGradient2192)"/>
  <g fill="url(#linearGradient1492)">
    <path d="m87.246094 63.769531a22.285716 22.285714 0 0 1 -.072266 1.455078 22.285716 22.285714 0 0 1 -.332031 2.203125 22.285716 22.285714 0 0 1 -.550781 2.158204 22.285716 22.285714 0 0 1 -.763672 2.091796 22.285716 22.285714 0 0 1 -.970703 2.00586 22.285716 22.285714 0 0 1 -1.164063 1.90039 22.285716 22.285714 0 0 1 -.205078.269532c2.180845 1.010933 4.842529.653571 6.646484-1.150391 2.338487-2.338443 2.29938-6.141024-.085937-8.431641z"/>
    <path d="m64.21875 40.742188a22.285716 22.285714 0 0 0 -.794922.027343 22.285716 22.285714 0 0 0 -2.210937.269531 22.285716 22.285714 0 0 0 -2.173829.488282 22.285716 22.285714 0 0 0 -2.115234.701172 22.285716 22.285714 0 0 0 -2.033203.910156 22.285716 22.285714 0 0 0 -1.931641 1.109375 22.285716 22.285714 0 0 0 -1.125.802734l29.566407 29.56836c.523555.545199 1.140959.934851 1.787109 1.234375a22.285716 22.285714 0 0 0 .205078-.269532 22.285716 22.285714 0 0 0 1.164063-1.90039 22.285716 22.285714 0 0 0 .970703-2.00586 22.285716 22.285714 0 0 0 .763672-2.091796 22.285716 22.285714 0 0 0 .550781-2.158204 22.285716 22.285714 0 0 0 .332031-2.203125 22.285716 22.285714 0 0 0 .072266-1.455078z"/>
    <path d="m38.294922 18.552734c-.781666.469301-1.654198.796129-2.408203 1.304688-1.822673 1.22935-3.421211 2.732871-5.06836 4.177734l21.015625 21.015625a22.285716 22.285714 0 0 1 1.125-.802734 22.285716 22.285714 0 0 1 1.931641-1.109375 22.285716 22.285714 0 0 1 2.033203-.910156 22.285716 22.285714 0 0 1 2.115234-.701172 22.285716 22.285714 0 0 1 2.173829-.488282 22.285716 22.285714 0 0 1 2.210937-.269531 22.285716 22.285714 0 0 1 .794922-.027343l-19.486328-19.486329c-1.936869-1.661221-4.181692-2.400904-6.4375-2.703125z"/>
  </g>
  <path d="m57.945062 34.950017a7.871004 7.871004 0 0 0 -5.482826 13.515405l27.545759 27.54576a7.871004 7.871004 0 1 0 11.130897-11.130897l-27.545759-27.54576a7.871004 7.871004 0 0 0 -5.648071-2.384508z" fill="url(#linearGradient1506)"/>
  <path d="m81.638205 46.835078c-10.866492 0-19.675542 8.809045-19.675542 19.675542s8.80905 19.675543 19.675542 19.675543h19.675545v-19.675543c0-10.866497-8.809043-19.675542-19.675545-19.675542z" fill="url(#radialGradient1425)"/>
  <circle cx="79.671" cy="-56.847" fill="#7a8599" r="3.126" transform="scale(1 -1)"/>
</svg>

<svg xmlns="http://www.w3.org/2000/svg" xmlns:xlink="http://www.w3.org/1999/xlink" style="enable-background:new" width="128" height="128" version="1.0" viewBox="0 0 128 128">
 <title id="title4162">
  Adwaita Icon Template
 </title>
 <defs>
  <linearGradient id="linearGradient2208">
   <stop id="stop2202" offset="0" style="stop-color:#ce8cff"/>
   <stop style="stop-color:#eee5fd" id="stop2204" offset=".67"/>
   <stop id="stop2206" offset="1" style="stop-color:#fefeff;stop-opacity:0.22380953"/>
  </linearGradient>
  <linearGradient id="linearGradient2184">
   <stop style="stop-color:#ce8cff" id="stop2180" offset="0"/>
   <stop id="stop2188" offset=".67" style="stop-color:#eee5fd"/>
   <stop style="stop-color:#fefeff" id="stop2182" offset="1"/>
  </linearGradient>
  <linearGradient id="linearGradient950">
   <stop style="stop-color:#9a9996" id="stop946" offset="0"/>
   <stop style="stop-color:#77767b" id="stop948" offset="1"/>
  </linearGradient>
  <linearGradient id="linearGradient1001" x1="1660.857" x2="1662.99" y1="806.297" y2="812.882" gradientTransform="matrix(1.8293937,-0.81599442,0.81599442,1.8293937,-3645.9624,100.02949)" gradientUnits="userSpaceOnUse" xlink:href="#linearGradient950"/>
  <radialGradient id="radialGradient1425" cx="450.948" cy="225.395" r="40" fx="450.948" fy="225.395" gradientTransform="matrix(0.80988551,0,0,0.80988551,-284.95681,-125.75883)" gradientUnits="userSpaceOnUse" xlink:href="#linearGradient27897"/>
  <linearGradient id="linearGradient27897">
   <stop style="stop-color:#505050" id="stop27893" offset="0"/>
   <stop style="stop-color:#000000" id="stop27895" offset="1"/>
  </linearGradient>
  <linearGradient id="linearGradient1506" x1="418.838" x2="428.919" y1="227" y2="216.919" gradientTransform="matrix(0.49188856,0,0,0.49188856,-134.79263,-45.639967)" gradientUnits="userSpaceOnUse" xlink:href="#linearGradient27913"/>
  <linearGradient id="linearGradient27913">
   <stop style="stop-color:#bcbcb4" id="stop27909" offset="0"/>
   <stop style="stop-color:#eeeeec" id="stop27911" offset="1"/>
  </linearGradient>
  <linearGradient id="linearGradient1492" x1="953.275" x2="944.207" y1="350.856" y2="359.924" gradientTransform="matrix(0.49188856,0,0,0.49188856,-429.92577,-149.92035)" gradientUnits="userSpaceOnUse" xlink:href="#linearGradient27905"/>
  <linearGradient id="linearGradient27905">
   <stop style="stop-color:#e9b96e" id="stop27901" offset="0"/>
   <stop style="stop-color:#dc9321" id="stop27903" offset="1"/>
  </linearGradient>
  <linearGradient id="linearGradient2186" x1="25.455" x2="70.054" y1="31.144" y2="68.509" gradientUnits="userSpaceOnUse" xlink:href="#linearGradient2184"/>
  <linearGradient id="linearGradient2192" x1="25.455" x2="70.054" y1="31.144" y2="68.509" gradientTransform="rotate(180,65,63)" gradientUnits="userSpaceOnUse" xlink:href="#linearGradient2208"/>
 </defs>
 <path d="M 65.000004,13 C 36.192005,13 13,36.192 13,65 13,93.808001 36.192005,117 65.000004,117 93.808003,117 117,93.808001 117,65 117,36.192 93.808003,13 65.000004,13 Z m 0,29.714286 A 22.285716,22.285714 0 0 1 87.285717,65 22.285716,22.285714 0 0 1 65.000004,87.285715 22.285716,22.285714 0 0 1 42.714289,65 22.285716,22.285714 0 0 1 65.000004,42.714286 Z" style="opacity:0.2"/>
 <path style="fill:#939393" d="M 65.000004,35.142858 A 27.857144,27.857142 0 0 0 37.142858,63 27.857144,27.857142 0 0 0 65.000004,90.857144 27.857144,27.857142 0 0 0 92.857146,63 27.857144,27.857142 0 0 0 65.000004,35.142858 Z m 0,16.714285 c 6.154201,0 11.142854,4.988658 11.142854,11.142857 0,6.1542 -4.988653,11.142858 -11.142854,11.142858 -6.154201,0 -11.142859,-4.988658 -11.142859,-11.142858 0,-6.154199 4.988658,-11.142857 11.142859,-11.142857 z"/>
 <path style="fill:url(#linearGradient2186)" d="M 65.000004,11 C 36.192005,11 13,34.192 13,63 13,91.808001 36.192005,115 65.000004,115 93.808003,115 117,91.808001 117,63 117,34.192 93.808003,11 65.000004,11 Z m 0,29.714286 A 22.285716,22.285714 0 0 1 87.285717,63 22.285716,22.285714 0 0 1 65.000004,85.285715 22.285716,22.285714 0 0 1 42.714289,63 22.285716,22.285714 0 0 1 65.000004,40.714286 Z"/>
 <path d="M 64.999996,115 C 93.807995,115 117,91.808 117,63 117,34.191999 93.807995,11 64.999996,11 36.191997,11 13,34.191999 13,63 c 0,28.808 23.191997,52 51.999996,52 z m 0,-29.714286 A 22.285716,22.285714 0 0 1 42.714283,63 22.285716,22.285714 0 0 1 64.999996,40.714285 22.285716,22.285714 0 0 1 87.285711,63 22.285716,22.285714 0 0 1 64.999996,85.285714 Z" style="fill:url(#linearGradient2192)"/>
 <g>
  <path style="fill:url(#linearGradient1492)" d="M 87.246094 63.769531 A 22.285716 22.285714 0 0 1 87.173828 65.224609 A 22.285716 22.285714 0 0 1 86.841797 67.427734 A 22.285716 22.285714 0 0 1 86.291016 69.585938 A 22.285716 22.285714 0 0 1 85.527344 71.677734 A 22.285716 22.285714 0 0 1 84.556641 73.683594 A 22.285716 22.285714 0 0 1 83.392578 75.583984 A 22.285716 22.285714 0 0 1 83.1875 75.853516 C 85.368345 76.864449 88.030029 76.507087 89.833984 74.703125 C 92.172471 72.364682 92.133364 68.562101 89.748047 66.271484 L 87.246094 63.769531 z"/>
  <path style="fill:url(#linearGradient1492)" d="M 64.21875 40.742188 A 22.285716 22.285714 0 0 0 63.423828 40.769531 A 22.285716 22.285714 0 0 0 61.212891 41.039062 A 22.285716 22.285714 0 0 0 59.039062 41.527344 A 22.285716 22.285714 0 0 0 56.923828 42.228516 A 22.285716 22.285714 0 0 0 54.890625 43.138672 A 22.285716 22.285714 0 0 0 52.958984 44.248047 A 22.285716 22.285714 0 0 0 51.833984 45.050781 L 81.400391 74.619141 C 81.923946 75.16434 82.54135 75.553992 83.1875 75.853516 A 22.285716 22.285714 0 0 0 83.392578 75.583984 A 22.285716 22.285714 0 0 0 84.556641 73.683594 A 22.285716 22.285714 0 0 0 85.527344 71.677734 A 22.285716 22.285714 0 0 0 86.291016 69.585938 A 22.285716 22.285714 0 0 0 86.841797 67.427734 A 22.285716 22.285714 0 0 0 87.173828 65.224609 A 22.285716 22.285714 0 0 0 87.246094 63.769531 L 64.21875 40.742188 z"/>
  <path style="fill:url(#linearGradient1492)" d="M 38.294922 18.552734 C 37.513256 19.022035 36.640724 19.348863 35.886719 19.857422 C 34.064046 21.086772 32.465508 22.590293 30.818359 24.035156 L 51.833984 45.050781 A 22.285716 22.285714 0 0 1 52.958984 44.248047 A 22.285716 22.285714 0 0 1 54.890625 43.138672 A 22.285716 22.285714 0 0 1 56.923828 42.228516 A 22.285716 22.285714 0 0 1 59.039062 41.527344 A 22.285716 22.285714 0 0 1 61.212891 41.039062 A 22.285716 22.285714 0 0 1 63.423828 40.769531 A 22.285716 22.285714 0 0 1 64.21875 40.742188 L 44.732422 21.255859 C 42.795553 19.594638 40.55073 18.854955 38.294922 18.552734 z"/>
  <path d="m 57.945062,34.950017 a 7.871004,7.871004 0 0 0 -5.482826,13.515405 l 27.545759,27.54576 A 7.871004,7.871004 0 1 0 91.138892,64.880285 L 63.593133,37.334525 a 7.871004,7.871004 0 0 0 -5.648071,-2.384508 z" style="fill:url(#linearGradient1506)"/>
  <path d="m 81.638205,46.835078 c -10.866492,0 -19.675542,8.809045 -19.675542,19.675542 0,10.866497 8.80905,19.675543 19.675542,19.675543 H 101.31375 V 66.51062 c 0,-10.866497 -8.809043,-19.675542 -19.675545,-19.675542 z" style="fill:url(#radialGradient1425)"/>
  <circle cx="79.671" cy="-56.847" r="3.126" transform="scale(1,-1)" style="fill:#7a8599"/>
 </g>
</svg>
